-----BEGIN PGP SIGNATURE-----

iQIzBAABCgAdFiEEW8rTHcyNXXIre3q9Lr4E58yBbTIFAmq2FKMACgkQLr4E58yB
bTKo7g/+MwXPtvJiNzzzw3vp2N9n+3RnFnvXykl/WEQJJF9wm0AM+GbphGGc5HRg
ui+CigeHV6GBnh7ju8o6Jnf2ugbavmSZFA0QJpEpw/NRXnncUL0W5qlZF5qFk+aK
2L4p2ZFFGk+ac6Kfm27TJdVybq6w6ndQ0QUnwmiBzP1zTCfgaFdJWwFi5XDCM4dB
yDZtOsy0WNkXmF7vMpB3vyH9DdoZ0MNBI9Gnv1ee/g2++YaKa2w78RaDVnwfI+fb
bExaU9Hfa+xqihLJI2lh8kV395NeacpdQovxpHtWRUioedLYQ7v8LSZLVH3HzCHR
OFrpFGGyR88UDEl+I5BhIJkDy84SxPUseMrAb8ADyGmXPm5qVfMc4Pg5lj73elsD
VRinr4s8NGN4j4GX827Ma9YMwZWP3m2GpAnd/O1GdV4m3x7+MCDdueWmlVEDfcPF
h/PmH3/+AYWFArq2bNV6Owjrsmb5ULMBc1eChtGU38S37zTLC0PvG+dkvOZ2T2pi
SCYiiB2NTuG7D7QYE1wtGard+oF21aiaHTbteBuqY7OFl/FjSXRovV2hdsMdIgF/
pVTnhlotsHSWSrIBp9ZgGkN4USS6yx61HTQBE4MpbFKK4OeC2zmWZDlIZHKuaol/
56iEW3tk8nHeN77JrDrma3oqXOwkxsW1aHeWrMb1pxAhLGbhq7g=
=9Fj3
-----END PGP SIGNATURE-----
