-----BEGIN PGP SIGNATURE-----

iQIzBAABCgAdFiEEW8rTHcyNXXIre3q9Lr4E58yBbTIFAmoog1gACgkQLr4E58yB
bTIhZw//avbO8Y6MgCquaNxEzF2J9nXPHI2SpKt2sGicgSVLWDDVHU2G6Qz1Kx1G
2dMyPbVgepmIKL7SZpSP/N2ucKy1dpOghuexlNaaTjDxeKYfIpyMLMTsp0JvIgWi
RTgODw+2SeUCIVC95R8RNwtxFsI6t3fGw9qhZvogJaqsf2+Xf5Xj5CeaY1crCPEP
W9JjiCJjuUMPzc4xswJvzv+4OcWRkZzStaLPfBOWtCmjoTxrmIMGXPCcB1fXlBnO
5TkuGjPvmw3kpFjKx9bbyCh4AbYKS8Fk4uC24C+NXcMmQydDHaVc8+AUGru4p6iR
cPiTsABNE8lSVUkbpISfg08/oJN2rLU3sFDgE0zhrutTSoARlo+SQCDD0Cm0qmtO
es0NePqEdHcGWiTou20ELUATqOLrpUl8gb9PUDfKaTlSXR3VaYdqU2il65flTXJ5
AhwGtHmXy8KQMKkEpWOgthImUKqGamKPMgYvxX7Fi4P85SUmfBppo8R/uqjIoaAU
QNNtjyhdb+gx03P3jKbqiW9aXjudk9Zj9yhj/hatYKJ+Kcb1RsYFUsvQjGqsfYUI
7Uip7YNDTTFXPmSEKbwU+f3OKlPgXG9kVp+nkw7zUZBGER24FDfww38mnNWUp9Wk
LmsNcB8GTeCVNN+QeTyUJgfclm3wgz3QHKaPteNBdKHQv/FkleY=
=rt49
-----END PGP SIGNATURE-----
